X: 1152
T: The Wedding of Lochan McGraw
B: australian traditional tunes wiki
B: kameruka bush dance
B: ralph
B: steve tunes
B: to learn
M:6/8
L:1/8
R: Jig
Q: 3/8=100
K:G
V:1 
|:"Em"BcB EFG|BcB EFG|"D"ABA AGF|AGF EFG|"Am"cdc cdc|"Em"BAG "D"FGA|
"B7"BcB BAB|1 "Em"GEE E3:|2 GEE E2 B||
"Em"Eee ede|"D"fed "Em"e2e|"G"dBB BAB|dBB B^cd|
"Em"eee e^de|fee ed^c|"G"dBB "B"BAB|"Em"GEE E3|
"Em"EEE G2F|"D"FDD D2F|"Em"EEE e2e|"G"dBB B2 B|
"D"dfd edc |"Am"cBA "G" G2A|"B7"BcB BAB|"Em"GEE E3||
% abcbook-tune_id 6342d5be49a447c48c74b4fa


% abcbook-boost 0
% abcbook-tablature 
% abcbook-transpose 
% abcbook-lastupdated 1666010017176
% abcbook-soundfonts 
% abcbook-repeats 3
% NFF Book 2006

